X: 34727
T: Road To Glountane, The
R: barndance
M: 4/4
K: Amajor
|:E2EF A2AB|ce2c BAFA|f2 ec ABc2|ecBA FAAF|
E2EF A2AB|ce2c BAF2|f2 ec ABc2|1 ecBA A3F:|2 ecBA A4||
|:ecef a2 af|ecBA FAAB|cB{c}BA cB{c}BA|cB{c}BA FAAc|
ecef a2 af|ecBA FAAB|cB{c}BA cB{c}BA|cABc A4:|

